src/icons/ruby.svg

<svg viewBox="0 0 24 24" xmlns="http://www.w3.org/2000/svg">
  <path
    d="M18.041 3.17701C20.281 3.55901 20.92 5.09601 20.884 6.70401V6.67001L19.871 19.936L6.73904 20.833H6.74704C5.65404 20.789 3.22904 20.682 3.11304 17.288L4.33004 15.066L6.79204 20.806L8.88904 14.036L8.84404 14.045L8.86204 14.027L15.712 16.213L13.945 9.30001L20.475 8.89101L15.331 4.67901L18.041 3.16901V3.17701ZM6.91604 6.87401C9.54604 4.25201 12.949 2.70601 14.256 4.03001C15.553 5.33601 14.184 8.55301 11.554 11.165C8.88804 13.778 5.53904 15.413 4.23204 14.098C2.92604 12.774 4.26804 9.48601 6.90704 6.87401H6.91604Z"
    fill="#F44336"
  />
</svg>

<svg viewBox="0 0 24 24" xmlns="http://www.w3.org/2000/svg"><path d="M18.041 3.177c2.24.382 2.879 1.919 2.843 3.527V6.67l-1.013 13.266-13.132.897h.008c-1.093-.044-3.518-.151-3.634-3.545l1.217-2.222 2.462 5.74 2.097-6.77-.045.009.018-.018 6.85 2.186L13.945 9.3l6.53-.409-5.144-4.212 2.71-1.51v.009M3.113 17.252v.017-.017M6.916 6.874c2.63-2.622 6.033-4.168 7.34-2.844 1.297 1.306-.072 4.523-2.702 7.135-2.666 2.613-6.015 4.248-7.322 2.933-1.306-1.324.036-4.612 2.675-7.224z" style="fill:#f44336;stroke-width:.88855"/></svg>
